Numix-GalliumOS/64/mimetypes/application-image-bmp.svg

<svg xmlns="http://www.w3.org/2000/svg" xmlns:xlink="http://www.w3.org/1999/xlink" width="64px" height="64px" viewBox="0 0 64 64" version="1.1">
<g id="surface1">
<path style=" stroke:none;fill-rule:nonzero;fill:rgb(21.960784%,63.921569%,30.588235%);fill-opacity:1;" d="M 10.671875 0 C 9.296875 0 8 1.355469 8 2.789062 L 8 61.210938 C 8 62.566406 9.375 64 10.671875 64 L 53.328125 64 C 54.625 64 56 62.566406 56 61.210938 L 56 18 L 38 0 Z M 10.671875 0 "/>
<path style=" stroke:none;fill-rule:nonzero;fill:rgb(0%,0%,0%);fill-opacity:0.196078;" d="M 42 18 L 56 32 L 56 18 Z M 42 18 "/>
<path style=" stroke:none;fill-rule:nonzero;fill:rgb(100%,100%,100%);fill-opacity:0.392157;" d="M 38 0 L 55.984375 18 L 40.757812 18 C 39.410156 18 38 16.574219 38 15.226562 Z M 38 0 "/>
<path style=" stroke:none;fill-rule:nonzero;fill:rgb(100%,100%,100%);fill-opacity:1;" d="M 23.289062 22 C 22.585938 22.066406 21.984375 22.8125 22 23.605469 L 22 40.433594 C 22.007812 41.261719 22.667969 42.007812 23.40625 42 L 40.628906 42 C 41.355469 41.984375 41.992188 41.253906 42 40.433594 L 42 23.605469 C 42.015625 22.769531 41.371094 22.007812 40.628906 22 Z M 24 24 L 40 24 L 40 35.402344 L 35.296875 30.085938 L 34.117188 31.21875 L 32.316406 32.859375 L 31.214844 31.761719 L 28.386719 27.9375 L 24 33.597656 Z M 24 24 "/>
<path style=" stroke:none;fill-rule:nonzero;fill:rgb(0%,0%,0%);fill-opacity:0.196078;" d="M 8 48 L 8 61.335938 C 8 62.632812 9.375 64 10.664062 64 L 53.335938 64 C 54.625 64 56 62.632812 56 61.335938 L 56 48 Z M 8 48 "/>
<path style=" stroke:none;fill-rule:nonzero;fill:rgb(100%,100%,100%);fill-opacity:1;" d="M 26.199219 58.6875 C 26.199219 59.34375 26.074219 59.902344 25.828125 60.34375 C 25.574219 60.789062 25.230469 61.140625 24.796875 61.410156 C 24.378906 61.664062 23.871094 61.855469 23.28125 61.976562 C 22.699219 62.082031 22.074219 62.132812 21.402344 62.132812 C 20.871094 62.132812 20.304688 62.101562 19.730469 62.042969 C 19.148438 61.992188 18.574219 61.917969 18.007812 61.8125 L 18.007812 51.203125 C 18.476562 51.128906 18.976562 51.070312 19.53125 51.023438 C 20.082031 50.964844 20.632812 50.941406 21.164062 50.941406 C 22.089844 50.941406 22.835938 51.023438 23.417969 51.203125 C 24 51.367188 24.453125 51.589844 24.78125 51.875 C 25.109375 52.144531 25.328125 52.449219 25.453125 52.792969 C 25.566406 53.128906 25.625 53.472656 25.632812 53.820312 C 25.625 54.335938 25.484375 54.792969 25.199219 55.195312 C 24.917969 55.589844 24.542969 55.910156 24.066406 56.148438 C 24.894531 56.417969 25.460938 56.777344 25.746094 57.238281 C 26.050781 57.695312 26.199219 58.179688 26.199219 58.6875 M 20.433594 57.203125 L 20.433594 60.171875 C 20.605469 60.199219 20.796875 60.214844 20.992188 60.222656 C 21.199219 60.238281 21.402344 60.246094 21.597656 60.246094 C 21.878906 60.246094 22.148438 60.222656 22.410156 60.191406 C 22.671875 60.140625 22.902344 60.066406 23.097656 59.960938 C 23.3125 59.84375 23.484375 59.679688 23.617188 59.484375 C 23.746094 59.269531 23.8125 59.007812 23.8125 58.6875 C 23.8125 58.15625 23.625 57.777344 23.238281 57.558594 C 22.871094 57.328125 22.371094 57.207031 21.738281 57.207031 L 20.433594 57.207031 M 21.386719 55.402344 C 22 55.402344 22.46875 55.285156 22.789062 55.046875 C 23.097656 54.800781 23.261719 54.464844 23.261719 54.046875 C 23.261719 53.785156 23.214844 53.582031 23.125 53.425781 C 23.035156 53.261719 22.902344 53.136719 22.746094 53.054688 C 22.589844 52.964844 22.402344 52.902344 22.199219 52.882812 C 21.984375 52.84375 21.769531 52.828125 21.542969 52.828125 C 21.359375 52.828125 21.164062 52.835938 20.96875 52.84375 C 20.769531 52.859375 20.597656 52.875 20.433594 52.902344 L 20.433594 55.402344 L 21.386719 55.402344 "/>
<path style=" stroke:none;fill-rule:nonzero;fill:rgb(100%,100%,100%);fill-opacity:1;" d="M 29.988281 51.0625 C 30.085938 51.308594 30.191406 51.628906 30.324219 52.015625 C 30.46875 52.398438 30.625 52.820312 30.78125 53.269531 C 30.9375 53.710938 31.09375 54.171875 31.257812 54.628906 C 31.414062 55.089844 31.5625 55.507812 31.707031 55.902344 C 31.863281 55.46875 32.027344 55.015625 32.199219 54.558594 C 32.371094 54.089844 32.535156 53.636719 32.691406 53.210938 C 32.855469 52.777344 32.996094 52.375 33.128906 52 C 33.257812 51.621094 33.382812 51.308594 33.488281 51.0625 L 35.496094 51.0625 C 35.585938 52.015625 35.675781 52.941406 35.75 53.851562 C 35.847656 54.761719 35.914062 55.65625 35.972656 56.550781 C 36.039062 57.433594 36.085938 58.328125 36.128906 59.238281 C 36.167969 60.132812 36.203125 61.050781 36.226562 61.992188 L 33.996094 61.992188 L 34.121094 53.5 L 32.617188 58.125 L 30.839844 58.125 L 29.398438 53.5 L 29.496094 61.992188 L 27.265625 61.992188 C 27.304688 61.101562 27.347656 60.164062 27.386719 59.199219 C 27.4375 58.238281 27.496094 57.277344 27.542969 56.320312 C 27.59375 55.367188 27.660156 54.441406 27.722656 53.546875 C 27.796875 52.65625 27.886719 51.828125 27.976562 51.0625 L 29.988281 51.0625 "/>
<path style=" stroke:none;fill-rule:nonzero;fill:rgb(100%,100%,100%);fill-opacity:1;" d="M 41.105469 50.941406 C 42.65625 50.941406 43.859375 51.226562 44.710938 51.800781 C 45.574219 52.367188 46 53.300781 46 54.589844 C 46 55.902344 45.566406 56.84375 44.695312 57.433594 C 43.835938 58.007812 42.621094 58.304688 41.039062 58.304688 L 40.179688 58.304688 L 40.179688 61.992188 L 37.742188 61.992188 L 37.742188 51.203125 C 37.980469 51.152344 38.242188 51.113281 38.539062 51.082031 C 38.84375 51.046875 39.144531 51.023438 39.449219 51.007812 C 39.742188 50.980469 40.046875 50.964844 40.335938 50.957031 C 40.621094 50.941406 40.875 50.941406 41.105469 50.941406 M 41.375 52.828125 C 41.234375 52.828125 41.03125 52.835938 40.769531 52.84375 C 40.515625 52.84375 40.316406 52.859375 40.179688 52.882812 L 40.179688 56.410156 L 41.164062 56.410156 C 41.941406 56.410156 42.523438 56.277344 42.917969 56.007812 C 43.3125 55.722656 43.507812 55.246094 43.507812 54.574219 C 43.507812 53.941406 43.3125 53.492188 42.917969 53.238281 C 42.539062 52.964844 42.023438 52.828125 41.375 52.828125 "/>
</g>
</svg>

<svg xmlns="http://www.w3.org/2000/svg" viewBox="0 0 64 64">
 <g>
  <path d="m 10.672 0 c -1.375 0 -2.672 1.355 -2.672 2.789 l 0 58.42 c 0 1.355 1.375 2.789 2.672 2.789 l 42.656 0 c 1.297 0 2.672 -1.434 2.672 -2.789 l 0 -43.21 l -18 -18 m -27.328 0" style="fill:#37a34d;fill-opacity:1;stroke:none;fill-rule:nonzero"/>
  <path d="m 42 18 l 14 14 l 0 -14 m -14 0" style="fill:#000;fill-opacity:0.196;stroke:none;fill-rule:nonzero"/>
  <path d="m 38 0 l 17.984 18 l -15.227 0 c -1.348 0 -2.758 -1.426 -2.758 -2.773 m 0 -15.227" style="fill:#fff;fill-opacity:0.392;stroke:none;fill-rule:nonzero"/>
  <path d="m 23.289 22 c -0.703 0.066 -1.305 0.813 -1.289 1.605 l 0 16.828 c 0.008 0.828 0.668 1.574 1.406 1.566 l 17.223 0 c 0.727 -0.016 1.363 -0.746 1.371 -1.566 l 0 -16.828 c 0.016 -0.836 -0.629 -1.598 -1.371 -1.605 m -16.629 2 16 0 0 11.402 -4.703 -5.316 -2.98 2.773 -3.93 -4.922 -4.387 5.66" style="fill:#fff;fill-opacity:1;stroke:none;fill-rule:nonzero"/>
  <path d="m 8 48 l 0 13.336 c 0 1.297 1.375 2.664 2.664 2.664 l 42.672 0 c 1.289 0 2.664 -1.367 2.664 -2.664 l 0 -13.336 m -48 0" style="fill:#000;fill-opacity:0.196;stroke:none;fill-rule:nonzero"/>
  <path d="m 26.2 58.688 c 0 0.656 -0.125 1.215 -0.371 1.656 c -0.254 0.445 -0.598 0.797 -1.031 1.066 c -0.418 0.254 -0.926 0.445 -1.516 0.566 c -0.582 0.105 -1.207 0.156 -1.879 0.156 c -0.531 0 -1.098 -0.031 -1.672 -0.09 c -0.582 -0.051 -1.156 -0.125 -1.723 -0.23 l 0 -10.609 c 0.469 -0.074 0.969 -0.133 1.523 -0.18 c 0.551 -0.059 1.102 -0.082 1.633 -0.082 c 0.926 0 1.672 0.082 2.254 0.262 c 0.582 0.164 1.035 0.387 1.363 0.672 c 0.328 0.27 0.547 0.574 0.672 0.918 c 0.113 0.336 0.172 0.68 0.18 1.027 c -0.008 0.516 -0.148 0.973 -0.434 1.375 c -0.281 0.395 -0.656 0.715 -1.133 0.953 c 0.828 0.27 1.395 0.629 1.68 1.09 c 0.305 0.457 0.453 0.941 0.453 1.449 m -5.766 -1.484 l 0 2.969 c 0.172 0.027 0.363 0.043 0.559 0.051 c 0.207 0.016 0.41 0.023 0.605 0.023 c 0.281 0 0.551 -0.023 0.813 -0.055 c 0.262 -0.051 0.492 -0.125 0.688 -0.23 c 0.215 -0.117 0.387 -0.281 0.52 -0.477 c 0.129 -0.215 0.195 -0.477 0.195 -0.797 c 0 -0.531 -0.188 -0.91 -0.574 -1.129 c -0.367 -0.23 -0.867 -0.352 -1.5 -0.352 l -1.305 0 m 0.953 -1.805 c 0.613 0 1.082 -0.117 1.402 -0.355 c 0.309 -0.246 0.473 -0.582 0.473 -1 c 0 -0.262 -0.047 -0.465 -0.137 -0.621 c -0.09 -0.164 -0.223 -0.289 -0.379 -0.371 c -0.156 -0.09 -0.344 -0.152 -0.547 -0.172 c -0.215 -0.039 -0.43 -0.055 -0.656 -0.055 c -0.184 0 -0.379 0.008 -0.574 0.016 c -0.199 0.016 -0.371 0.031 -0.535 0.059 l 0 2.5 l 0.953 0" style="fill:#fff;fill-opacity:1;stroke:none;fill-rule:nonzero"/>
  <path d="m 29.988 51.06 c 0.098 0.246 0.203 0.566 0.336 0.953 c 0.145 0.383 0.301 0.805 0.457 1.254 c 0.156 0.441 0.313 0.902 0.477 1.359 c 0.156 0.461 0.305 0.879 0.449 1.273 c 0.156 -0.434 0.32 -0.887 0.492 -1.344 c 0.172 -0.469 0.336 -0.922 0.492 -1.348 c 0.164 -0.434 0.305 -0.836 0.438 -1.211 c 0.129 -0.379 0.254 -0.691 0.359 -0.938 l 2.01 0 c 0.09 0.953 0.18 1.879 0.254 2.789 c 0.098 0.91 0.164 1.805 0.223 2.699 c 0.066 0.883 0.113 1.777 0.156 2.688 c 0.039 0.895 0.074 1.813 0.098 2.754 l -2.23 0 l 0.125 -8.492 l -1.504 4.625 l -1.777 0 l -1.441 -4.625 l 0.098 8.492 l -2.23 0 c 0.039 -0.891 0.082 -1.828 0.121 -2.793 c 0.051 -0.961 0.109 -1.922 0.156 -2.879 c 0.051 -0.953 0.117 -1.879 0.18 -2.773 c 0.074 -0.891 0.164 -1.719 0.254 -2.484 l 2.01 0" style="fill:#fff;fill-opacity:1;stroke:none;fill-rule:nonzero"/>
  <path d="m 41.11 50.941 c 1.551 0 2.754 0.285 3.605 0.859 c 0.863 0.566 1.289 1.5 1.289 2.789 c 0 1.313 -0.434 2.254 -1.305 2.844 c -0.859 0.574 -2.074 0.871 -3.656 0.871 l -0.859 0 l 0 3.688 l -2.438 0 l 0 -10.789 c 0.238 -0.051 0.5 -0.09 0.797 -0.121 c 0.305 -0.035 0.605 -0.059 0.91 -0.074 c 0.293 -0.027 0.598 -0.043 0.887 -0.051 c 0.285 -0.016 0.539 -0.016 0.77 -0.016 m 0.27 1.887 c -0.141 0 -0.344 0.008 -0.605 0.016 c -0.254 0 -0.453 0.016 -0.59 0.039 l 0 3.527 l 0.984 0 c 0.777 0 1.359 -0.133 1.754 -0.402 c 0.395 -0.285 0.59 -0.762 0.59 -1.434 c 0 -0.633 -0.195 -1.082 -0.59 -1.336 c -0.379 -0.273 -0.895 -0.41 -1.543 -0.41" style="fill:#fff;fill-opacity:1;stroke:none;fill-rule:nonzero"/>
 </g>
</svg>
